assets/icons/sair.svg

<svg width="29" height="29" viewBox="0 0 29 29" fill="none" xmlns="http://www.w3.org/2000/svg">
<path fill-rule="evenodd" clip-rule="evenodd" d="M4.35002 4.35C5.15085 4.35 5.80002 4.99918 5.80002 5.8V23.2C5.80002 24.0008 5.15083 24.65 4.35002 24.65C3.5492 24.65 2.90002 24.0008 2.90002 23.2V5.8C2.90002 4.99918 3.54922 4.35 4.35002 4.35ZM15.5253 9.12469C16.0915 9.69096 16.0915 10.609 15.5253 11.1753L13.6506 13.05H24.65C25.4509 13.05 26.1 13.6992 26.1 14.5C26.1 15.3008 25.4509 15.95 24.65 15.95H13.6506L15.5253 17.8247C16.0915 18.3909 16.0915 19.3091 15.5253 19.8753C14.9591 20.4415 14.041 20.4415 13.4747 19.8753L9.12472 15.5253C8.8528 15.2534 8.70002 14.8845 8.70002 14.5C8.70002 14.1154 8.8528 13.7466 9.12472 13.4747L13.4747 9.12469C14.041 8.55843 14.9591 8.55843 15.5253 9.12469Z" fill="#0075FF"/>
</svg>

import React from "react";

function Icon() {
  return (
    <svg
      xmlns="http://www.w3.org/2000/svg"
      width="29"
      height="29"
      fill="none"
      viewBox="0 0 29 29"
    >
      <path
        fill="#0075FF"
        fillRule="evenodd"
        d="M4.35 4.35c.8 0 1.45.65 1.45 1.45v17.4a1.45 1.45 0 01-2.9 0V5.8c0-.8.65-1.45 1.45-1.45zm11.175 4.775a1.45 1.45 0 010 2.05l-1.874 1.875H24.65a1.45 1.45 0 110 2.9h-11l1.875 1.875a1.45 1.45 0 01-2.05 2.05l-4.35-4.35a1.45 1.45 0 010-2.05l4.35-4.35a1.45 1.45 0 012.05 0z"
        clipRule="evenodd"
      ></path>
    </svg>
  );
}

export default Icon;
